Papirus-nordic/32x32/places/folder-nordic-torrent.svg

<svg xmlns="http://www.w3.org/2000/svg" width="32" height="32" version="1">
 <rect style="opacity:0.2" width="25" height="16" x="3" y="12" rx="1.25" ry="1.25"/>
 <path style="fill:#6c9b9a" d="M 3,21.75 C 3,22.442 3.5575,23 4.25,23 H 26.75 C 27.442,23 28,22.442 28,21.75 V 8.25 C 28,7.5575 27.442,7 26.75,7 H 14 V 6.25 C 14,5.5575 13.443,5 12.75,5 H 4.25 C 3.5575,5 3,5.5575 3,6.25"/>
 <rect style="opacity:0.2" width="25" height="16" x="3" y="10" rx="1.25" ry="1.25"/>
 <rect style="fill:#e4e4e4" width="21" height="10" x="5" y="9" rx="1.25" ry="1.25"/>
 <rect style="fill:#82abaa" width="25" height="16" x="3" y="11" rx="1.25" ry="1.25"/>
 <path style="opacity:0.1;fill:#ffffff" d="M 4.25 5 C 3.5575 5 3 5.5575 3 6.25 L 3 7.25 C 3 6.5575 3.5575 6 4.25 6 L 12.75 6 C 13.443 6 14 6.5575 14 7.25 L 14 8 L 26.75 8 C 27.442 8 28 8.5575 28 9.25 L 28 8.25 C 28 7.5575 27.442 7 26.75 7 L 14 7 L 14 6.25 C 14 5.5575 13.443 5 12.75 5 L 4.25 5 z"/>
 <path style="fill:#4e6766" d="M 16 13 A 6 6 0 0 0 10 19 A 6 6 0 0 0 16 25 L 28 25 L 28 24 L 19.308594 24 L 16 24 A 5 5 0 0 1 11 19 A 5 5 0 0 1 16 14 L 16 13 z M 16 15 C 13.790861 15 12 16.790861 12 19 C 12 21.209139 13.790861 23 16 23 L 28 23 L 28 22 L 16 22 C 14.343146 22 13 20.656854 13 19 C 13 17.343146 14.343146 16 16 16 C 16.3409 16.0014 16.679075 16.0608 17 16.175781 L 17 15.130859 C 16.673523 15.045224 16.337519 15.001255 16 15 z M 16 17 A 2 2 0 0 0 14 19 A 2 2 0 0 0 16 21 L 28 21 L 28 20 L 16 20 A 1 1 0 0 1 15 19 A 1 1 0 0 1 16 18 L 17.730469 18 A 2 2 0 0 0 16 17 z"/>
</svg>

<svg xmlns="http://www.w3.org/2000/svg" width="32" height="32" version="1"><rect width="25" height="16" x="3" y="12" rx="1.25" ry="1.25" opacity=".2"/><path d="M3 21.75c0 .692.558 1.25 1.25 1.25h22.5c.692 0 1.25-.558 1.25-1.25V8.25C28 7.558 27.442 7 26.75 7H14v-.75C14 5.558 13.443 5 12.75 5h-8.5C3.558 5 3 5.558 3 6.25" fill="#6c9b9a"/><rect width="25" height="16" x="3" y="10" rx="1.25" ry="1.25" opacity=".2"/><rect width="21" height="10" x="5" y="9" rx="1.25" ry="1.25" fill="#e4e4e4"/><rect width="25" height="16" x="3" y="11" rx="1.25" ry="1.25" fill="#82abaa"/><path d="M4.25 5C3.558 5 3 5.558 3 6.25v1C3 6.558 3.558 6 4.25 6h8.5c.693 0 1.25.558 1.25 1.25V8h12.75c.692 0 1.25.557 1.25 1.25v-1C28 7.558 27.442 7 26.75 7H14v-.75C14 5.558 13.443 5 12.75 5h-8.5z" opacity=".1" fill="#fff"/><path d="M16 13a6 6 0 0 0-6 6 6 6 0 0 0 6 6h12v-1H16a5 5 0 0 1-5-5 5 5 0 0 1 5-5v-1zm0 2a4 4 0 1 0 0 8h12v-1H16a3 3 0 0 1 0-6c.34.001.68.06 1 .176V15.13A4 4 0 0 0 16 15zm0 2a2 2 0 0 0-2 2 2 2 0 0 0 2 2h12v-1H16a1 1 0 0 1-1-1 1 1 0 0 1 1-1h1.73A2 2 0 0 0 16 17z" fill="#4e6766"/></svg>
